X:1
T:Mrs Gibbons' Varsovienna
N:from the melodeon playing of Mrs Gibbons (Sally Sloane's twin sister)
Z:Ian Hayden 2017
M:3/4
L:1/8
K:D
FG|"D"A2 d2 c2|"A"G4 EF|G2 B2 A2|"D"F4 FG|\
"D"F2 E2 F2|"A"G2-GF GA| B2 "A"G2 E2|"D"D4:|
A,>D|"D"F>G F<D A,>D| F>G F<D A,>D| F2G2F2|"A"E4 A,>C|\
E>F G<E A,>C|E>F G<E A,>C|E2F2E2|"D"D4:|
